X:1
T:Oblation, 11.11.5
T:Oblation, 11.11.5
T:Johann Crüger, 1653
T:Public Domain Courtesy of the Cyber Hymnal™
C:Johann Crüger, 1653
Z:Public Domain
Z:Courtesy of the Cyber Hymnal™
%%score ( 1 2 ) ( 3 4 )
L:1/8
Q:1/4=115
M:none
K:C
V:1 treble 
V:2 treble 
V:3 bass 
V:4 bass 
V:1
 [EG]4 [Ec]2 [GB]2 | [FA]4 [DG]4 | [CE]2 [CF]2 [DG]2 [CG]2 | F4 [CE]4 | [EG]4 [EA]2 [EB]2 | %5
 [Ec]4 [^FA]4 | [GB]2 [Gc]2 [Gd]2 G2 | A4 G4 | [CE]4 [A,D]2 C2 | [DG]4 G4 | %10
 [DA]2 [Ec]2 [EB]2 [CA]2 | [FA]2 [E^G]2 [EA]4 | [CG]4 [CF]2 [CE]2 | D4 C4 |] %14
V:2
 x8 | x8 | x8 | A,2 B,2 x4 | x8 | x8 | x6 G2 | G2 ^F2 G4 | x6 C2 | x4 C2 B,2 | x8 | x8 | x8 | %13
 C2 B,2 C4 |] %14
V:3
 [C,C]4 [A,C]2 [E,E]2 | [F,C]4 [G,B,]4 | [C,G,]2 [A,,A,]2 [B,,G,]2 [C,E,]2 | [D,F,]4 [C,G,]4 | %4
 C4 [A,C]2 [^G,B,]2 | A,4 [D,D]4 | [G,D]2 [C,E]2 [B,,D]2 [E,B,]2 | [D,D]4 [G,B,]4 | %8
 [C,G,]4 [D,F,]2 [A,,E,]2 | (D,2 G,2) [E,G,]4 | [D,F,]2 [A,,A,]2 [E,^G,]2 [F,A,]2 | B,4 [A,C]4 | %12
 [E,G,]4 [F,A,]2 [C,G,]2 | [G,,G,]4 [C,E,]4 |] %14
V:4
 x8 | x8 | x8 | x8 | (C2 B,2) x4 | A,4 x4 | x8 | x8 | x8 | B,,4 x4 | x8 | D,2 E,2 x4 | x8 | x8 |] %14

